svgs/sharp-solid/l.svg

<svg xmlns="http://www.w3.org/2000/svg" viewBox="0 0 320 512"><!--! Font Awesome Pro 6.6.0 by @fontawesome - https://fontawesome.com License - https://fontawesome.com/license (Commercial License) Copyright 2024 Fonticons, Inc. --><path d="M96 32l0 32 0 352 192 0 32 0 0 64-32 0L64 480l-32 0 0-32L32 64l0-32 64 0z"/></svg>

<svg xmlns="http://www.w3.org/2000/svg" viewBox="0 0 320 512"><!--! Font Awesome Pro 6.5.2 by @fontawesome - https://fontawesome.com License - https://fontawesome.com/license (Commercial License) Copyright 2024 Fonticons, Inc. --><path d="M96 32V64 416H288h32v64H288 64 32V448 64 32H96z"/></svg>
